X:685
T:The Slof Galliard
C:Traditional Dutch
L:1/4
M:2/2
S:Colin Hume's website,  colinhume.com  - chords can also be printed below the stave.
Q:1/2=112
K:F
P:A
|: "F"F2 "/"A3/B/ | "F"c2 "/"f3/e/ | "Bb"dc "/"BA | "C7"GF "/"EC |\
"F"F2 "/"A3/B/ | "F"c2 "/"f3/g/ | "Dm"af "C7"ge |1 "F"f2- "/"f2 :|2 "F"f2- "/"f ||
P:B
|: d/c/ | "Gm"BA "D7"G^F | "Gm"G2- "/"GG/A/ | "Gm"BA "D7"G/A/B/c/ | "Gm"d2- "/"dd/e/ |\
"Bb"fe "/"dc | "F"f2 "/"A2 | "Gm"BA "/"GF | "C7"G2 "/"C2 |
"F"F2 "/"A3/B/ | "F"c2 "/"f3/g/ | "Dm"af "C7"ge | "F"f2- "/"f :|

